Origami/64x64/apps/unknown-horizons.svg

<svg width="64" height="64" version="1.1" viewBox="0 0 64 64" xmlns="http://www.w3.org/2000/svg">
 <path d="m42.4 46h-38.4s8.4 12 33.6 12c16.8 0 22.4-8.4 22.4-12.6 0-3.633436 0-5.4-2.8-5.4h-12c-2.8 0-2.8 2.642598-2.8 6z" style="opacity:.2"/>
 <path d="m38 16v-8l10 4z" style="opacity:.2"/>
 <path d="m42.4 45h-38.4s8.4 12 33.6 12c16.8 0 22.4-8.4 22.4-12.6 0-3.633436 0-5.4-2.8-5.4h-12c-2.8 0-2.8 2.642598-2.8 6z" style="fill:#784421"/>
 <path d="M 38,16 V 46 C 38,46 26,39.145 26,30.999998 26,22.855 38,16 38,16 Z" style="opacity:.2"/>
 <path d="M 38,15 V 45 C 38,45 26,38.145 26,29.999998 26,21.855 38,15 38,15 Z" style="fill:#cccccc"/>
 <path d="m38 15v-8l10 4z" style="fill:#c83737"/>
 <path d="m20 26v20s-8-4.57-8-10 8-10 8-10z" style="opacity:.2"/>
 <path d="m20 25v20s-8-4.57-8-10 8-10 8-10z" style="fill:#cccccc"/>
 <path d="m45 42.333334s0-1.333334 1.5-1.333334 1.5 1.333334 1.5 1.333334v2.666666h-3z" style="opacity:.4"/>
 <path d="m50 42.333334s0-1.333334 1.5-1.333334 1.5 1.333334 1.5 1.333334v2.666666h-3z" style="opacity:.4"/>
 <path d="m55 42.333334s0-1.333334 1.5-1.333334 1.5 1.333334 1.5 1.333334v2.666666h-3z" style="opacity:.4"/>
 <path d="m45.199219 39c-2.8 0-2.798828 2.642598-2.798828 6h-38.400391s0.2782163 0.386216 0.8457031 1h37.554688c0-3.357402-0.001172-6 2.798828-6h12c2.560143 0 2.766369 1.555526 2.785156 4.585938 0.002182-0.060015 0.015625-0.127125 0.015625-0.185547 0-3.633436-7.81e-4 -5.400391-2.800781-5.400391h-12z" style="fill:#ffffff;opacity:.1"/>
 <path d="m38 15s-12 6.855002-12 15c0 0.167511 0.013495 0.333629 0.023438 0.5 0.473493-7.923212 11.976562-14.5 11.976562-14.5v-1z" style="fill:#ffffff;opacity:.1"/>
 <path d="m38 7v1l8.75 3.5 1.25-0.5-10-4z" style="fill:#ffffff;opacity:.1"/>
 <path d="m20 25s-8 4.57-8 10c0 0.168382 0.030013 0.333382 0.044922 0.5 0.46586-5.206478 7.955078-9.5 7.955078-9.5v-1z" style="fill:#ffffff;opacity:.1"/>
</svg>

<svg xmlns="http://www.w3.org/2000/svg" width="64" height="64" version="1.1" viewBox="0 0 64 64">
 <path style="opacity:0.2" d="M 42.4,46 H 4 C 4,46 12.4,58 37.6,58 54.4,58 60,49.6 60,45.4 60,41.766564 60,40 57.2,40 h -12 c -2.8,0 -2.8,2.642598 -2.8,6 z"/>
 <path style="opacity:0.2" d="M 38,16 V 8 l 10,4 z"/>
 <path style="fill:#784421" d="M 42.4,45 H 4 C 4,45 12.4,57 37.6,57 54.4,57 60,48.6 60,44.4 60,40.766564 60,39 57.2,39 h -12 c -2.8,0 -2.8,2.642598 -2.8,6 z"/>
 <path style="opacity:0.2" d="M 38,16 V 46 C 38,46 26,39.145 26,30.999998 26,22.855 38,16 38,16 Z"/>
 <path style="fill:#cccccc" d="M 38,15 V 45 C 38,45 26,38.145 26,29.999998 26,21.855 38,15 38,15 Z"/>
 <path style="fill:#c83737" d="M 38,15 V 7 l 10,4 z"/>
 <path style="opacity:0.2" d="m 20,26 v 20 c 0,0 -8,-4.57 -8,-10 0,-5.43 8,-10 8,-10 z"/>
 <path style="fill:#cccccc" d="m 20,25 v 20 c 0,0 -8,-4.57 -8,-10 0,-5.43 8,-10 8,-10 z"/>
 <path style="opacity:0.4" d="M 45,42.333334 C 45,42.333334 45,41 46.5,41 48,41 48,42.333334 48,42.333334 V 45 h -3 z"/>
 <path style="opacity:0.4" d="M 50,42.333334 C 50,42.333334 50,41 51.5,41 53,41 53,42.333334 53,42.333334 V 45 h -3 z"/>
 <path style="opacity:0.4" d="M 55,42.333334 C 55,42.333334 55,41 56.5,41 58,41 58,42.333334 58,42.333334 V 45 h -3 z"/>
 <path style="fill:#ffffff;opacity:0.1" d="M 45.199219 39 C 42.399219 39 42.400391 41.642598 42.400391 45 L 4 45 C 4 45 4.2782163 45.386216 4.8457031 46 L 42.400391 46 C 42.400391 42.642598 42.399219 40 45.199219 40 L 57.199219 40 C 59.759362 40 59.965588 41.555526 59.984375 44.585938 C 59.986557 44.525923 60 44.458813 60 44.400391 C 60 40.766955 59.999219 39 57.199219 39 L 45.199219 39 z"/>
 <path style="fill:#ffffff;opacity:0.1" d="M 38 15 C 38 15 26 21.855002 26 30 C 26 30.167511 26.013495 30.333629 26.023438 30.5 C 26.496931 22.576788 38 16 38 16 L 38 15 z"/>
 <path style="fill:#ffffff;opacity:0.1" d="M 38 7 L 38 8 L 46.75 11.5 L 48 11 L 38 7 z"/>
 <path style="fill:#ffffff;opacity:0.1" d="M 20 25 C 20 25 12 29.57 12 35 C 12 35.168382 12.030013 35.333382 12.044922 35.5 C 12.510782 30.293522 20 26 20 26 L 20 25 z"/>
</svg>
